!!!COM: Bach, Johann Sebastian
!!!OTA: Das wohltemperirte Clavier
!!!OPR: Das wohltemperierte Klavier
!!!OTL: Fuga 7, Vol. 2
!!!XEN: The Well-Tempered Clavier, Volume 2, Fugue 7.
!!!ONB: E-flat major, 4-part
!!!SCT: BWV 876b
!!!YEC: Copyright 1994, David Huron
!!!YEM: Rights to all derivative electronic formats reserved.
**kern	**kern	**kern	**kern
*staff2	*staff2	*staff1	*staff1
*clefF4	*clefF4	*clefG2	*clefG2
*k[b-e-a-]	*k[b-e-a-]	*k[b-e-a-]	*k[b-e-a-]
*M2/2	*M2/2	*M2/2	*M2/2
*E-:	*E-:	*E-:	*E-:
*MM130	*MM130	*MM130	*MM130
=1	=1	=1	=1
1E-	1r	1r	1r
=2	=2	=2	=2
2B-	1r	1r	1r
4r	.	.	.
4A-	.	.	.
=3	=3	=3	=3
4G	1r	1r	1r
2c	.	.	.
4B-	.	.	.
=4	=4	=4	=4
4A-	1r	1r	1r
8A-	.	.	.
8G	.	.	.
4A-	.	.	.
4c	.	.	.
=5	=5	=5	=5
4F	1r	1r	1r
2B-	.	.	.
4A-	.	.	.
=6	=6	=6	=6
4G	1r	1r	1r
8G	.	.	.
8F	.	.	.
4G	.	.	.
4B-	.	.	.
=7	=7	=7	=7
4E-	1B-	1r	1r
8E-	.	.	.
8D	.	.	.
4E-	.	.	.
4G	.	.	.
=8	=8	=8	=8
4C	2e-	1r	1r
8D	.	.	.
8E-	.	.	.
2F	4r	.	.
.	4e-	.	.
=9	=9	=9	=9
2BB-	4d	1r	1r
.	2g	.	.
[2B-	.	.	.
.	4f	.	.
=10	=10	=10	=10
2B-]	4e-	1r	1r
.	8e-	.	.
.	8d	.	.
4An	4e-	.	.
4G	4g	.	.
=11	=11	=11	=11
4.An	4c	1r	1r
.	2f	.	.
16B-	.	.	.
16A	.	.	.
4G	.	.	.
4A	4e-	.	.
=12	=12	=12	=12
4B-	4d	1r	1r
4BB-	8d	.	.
.	8c	.	.
4B-	4d	.	.
4A-	4f	.	.
=13	=13	=13	=13
4G	4B-	1r	1r
4GG	8B-	.	.
.	8A-	.	.
4G	4B-	.	.
4F	4d	.	.
=14	=14	=14	=14
4E-	4G	1e-	1r
8F	8A-	.	.
8G	8B-	.	.
[2A-	4c	.	.
.	8B-	.	.
.	8c	.	.
=15	=15	=15	=15
4A-]	4d	2b-	1r
8G	4f	.	.
8F	.	.	.
4G	4B-	4r	.
4B-	4d	4a-	.
=16	=16	=16	=16
4E-	[1e-	4g	1r
8A-	.	2cc	.
8G	.	.	.
4A-	.	.	.
4c	.	4b-	.
=17	=17	=17	=17
2.F	2e-]	4a-	1r
.	.	8a-	.
.	.	8g	.
.	4d	4a-	.
8G	4c	4cc	.
8A-	.	.	.
=18	=18	=18	=18
1B-	4.d	4f	1r
.	.	2b-	.
.	16e-	.	.
.	16d	.	.
.	4c	.	.
.	4d	4a-	.
=19	=19	=19	=19
2.E-	4e-	4g	1r
.	8B-	8g	.
.	8A-	8f	.
.	[2B-	4g	.
4D	.	4b-	.
=20	=20	=20	=20
2C	4B-]	4e-	1r
.	8A-	8f	.
.	8G	8e-	.
4r	[2A-	4f	.
4F	.	4a-	.
=21	=21	=21	=21
[1BB-	4A-]	4d	1b-
.	4G	2e-	.
.	4F	.	.
.	4B-	4d	.
=22	=22	=22	=22
2BB-]	2G	4c	2ee-
.	.	4g	.
2AAn	[2F	[2cc	4r
.	.	.	4ee-
=23	=23	=23	=23
2BB-	4F]	4cc]	4dd
.	4D	8b-	2gg
.	.	8an	.
4r	[2G	[2b-	.
4GG	.	.	4ff
=24	=24	=24	=24
2C	4G]	2b-]	4ee-
.	8c	.	8ee-
.	8B-	.	8dd
4r	[2c	4an	4ee-
4E-	.	4g	4gg
=25	=25	=25	=25
2F	4.c]	4.an	4cc
.	.	.	2ff
.	16d	16b-	.
.	16c	16a	.
4r	4B-	4g	.
4F	4c	4a	4ee-
=26	=26	=26	=26
4B-	2d	2b-	4dd
4F	.	.	8dd
.	.	.	8cc
4B-	4r	4r	4dd
4An	4c	4f	4ff
=27	=27	=27	=27
4G	2d	2g	4b-
4D	.	.	8b-
.	.	.	8an
4G	4r	4r	4b-
4F	4A-	4d	4dd
=28	=28	=28	=28
2.E-	4B-	4e-	4g
.	4c	4f	4an
.	2d-	2g	[2b-
4En	.	.	.
=29	=29	=29	=29
1F	4c	2.f	2b-]
.	4B-	.	.
.	2c	.	2an
.	.	4e-	.
=30	=30	=30	=30
2BB-	2B-	4d	4b-
.	.	8f	8dd
.	.	8g	8ee-
2r	2B-	[2a-	4ff
.	.	.	4dd
=31	=31	=31	=31
2r	2e-	4a-]	4b-
.	.	8g	8ee-
.	.	8a-	8ff
2E-	4r	4b-	4gg
.	4e-	4g	4ee-
=32	=32	=32	=32
2B-	4d	4f	4ff
.	2g	4b-	8ee-
.	.	.	8dd
4r	.	4a-	4cc
4A-	4f	4b-	4dd
=33	=33	=33	=33
4G	4e-	4B-	4ee-
2c	8e-	4r	4r
.	8d	.	.
.	4e-	2r	2r
4B-	4g	.	.
=34	=34	=34	=34
4A-	4c	1r	1r
8A-	2f	.	.
8G	.	.	.
4A-	.	.	.
4c	4e-	.	.
=35	=35	=35	=35
4F	4d	1r	1r
2B-	8d	.	.
.	8c	.	.
.	4d	.	.
4A-	4f	.	.
=36	=36	=36	=36
4G	4B-	1r	1r
8G	8B-	.	.
8F	8A-	.	.
4G	4B-	.	.
4B-	4d	.	.
=37	=37	=37	=37
4E-	2G	1b-	1r
8E-	.	.	.
8D	.	.	.
4E-	[2g	.	.
4G	.	.	.
=38	=38	=38	=38
2C	4g]	2ee-	1ee-
.	8g	.	.
.	8f	.	.
2c	4g	4r	.
.	4an	4ee-	.
=39	=39	=39	=39
4B-	4b-	4dd	2bb-
8B-	8d	2gg	.
8A-	8c	.	.
4B-	4d	.	4r
4d	4f	4ff	4aa-
=40	=40	=40	=40
2e-	4g	4ee-	4gg
.	8g	8ee-	2ccc
.	8f	8dd	.
4r	[2g	4ee-	.
4en	.	4gg	4bb-
=41	=41	=41	=41
4f	4g]	4cc	4aa-
8F	4c	2ff	8aa-
8En	.	.	8gg
4F	[2f	.	4aa-
4An	.	4ee-	4ccc
=42	=42	=42	=42
2B-	4f]	4dd	4ff
.	8f	8dd	2bb-
.	8e-	8cc	.
4r	[2f	4dd	.
4d	.	4ff	4aa-
=43	=43	=43	=43
4e-	4f]	4b-	4gg
4E-	4B-	8b-	8gg
.	.	8a-	8ff
8e-	4e-	4b-	4gg
8d	.	.	.
8c	4r	4dd	4bb-
8B-	.	.	.
=44	=44	=44	=44
4c	1r	4g	4ee-
4C	.	8an	8ee-
.	.	8bn	8dd
8c	.	4cc	4ee-
8B-	.	.	.
8A-	.	4bn	4gg
8G	.	.	.
=45	=45	=45	=45
4A-	1r	[2cc	4cc
4AA-	.	.	8dd
.	.	.	8ee-
4A-	.	8cc]	[2ff
.	.	8bn	.
8G	.	8cc	.
8F	.	8dd	.
=46	=46	=46	=46
[1G	1r	4bn	2ff]
.	.	4g	.
.	.	[2cc	8ee-
.	.	.	8dd
.	.	.	8ee-
.	.	.	8ff
=47	=47	=47	=47
8G]	1r	2cc]	4dd
8F	.	.	.
8G	.	.	2gg
8A-	.	.	.
8G	.	[2b-	.
8F	.	.	.
8En	.	.	4ff
8D	.	.	.
=48	=48	=48	=48
[1C	1r	2b-]	4een
.	.	.	4cc
.	.	8a-	[2ff
.	.	8g	.
.	.	8a-	.
.	.	8b-	.
=49	=49	=49	=49
8C]	1r	4g	2ff]
8BB-	.	.	.
8C	.	2cc	.
8D	.	.	.
8C	.	.	[2ee-
8BB-	.	.	.
8AAn	.	4b-	.
8GG	.	.	.
=50	=50	=50	=50
[1FF	1r	4an	2ee-]
.	.	4f	.
.	.	[2b-	8dd
.	.	.	8cc
.	.	.	8dd
.	.	.	8ee-
=51	=51	=51	=51
8FF]	1r	2b-]	4cc
8E-	.	.	.
8F	.	.	2ff
8G	.	.	.
8F	.	[2a-	.
8E-	.	.	.
8D	.	.	4ee-
8C	.	.	.
=52	=52	=52	=52
[1BB-	1r	2a-]	4dd
.	.	.	4b-
.	.	8g	[2ee-
.	.	8f	.
.	.	8g	.
.	.	8a-	.
=53	=53	=53	=53
8BB-]	2r	4f	2ee-]
8A-	.	.	.
8B-	.	2b-	.
8c	.	.	.
8B-	2B-	.	[2dd-
8A-	.	.	.
8G	.	4a-	.
8F	.	.	.
=54	=54	=54	=54
4G	2e-	4b-	4dd-]
4A-	.	2a-	4cc
4Dn	4r	.	2b-
4En	4d-	[4g	.
=55	=55	=55	=55
[2F	4c	4g]	2a-
.	2f	8f	.
.	.	8g	.
8F]	.	[2a-	2r
8E-	.	.	.
8D-	4e-	.	.
8C	.	.	.
=56	=56	=56	=56
[2BB-	4d-	4a-]	1r
.	8d-	4f	.
.	8c	.	.
8BB-]	4d-	4b-	.
8BB-	.	.	.
8C	4f	4a-	.
8D-	.	.	.
=57	=57	=57	=57
[2E-	4B-	4g	1r
.	2e-	8g	.
.	.	8f	.
8E-]	.	4g	.
8EE-	.	.	.
8FF	4d-	4b-	.
8GG	.	.	.
=58	=58	=58	=58
8AA-	4c	4e-	1r
8BB-	.	.	.
8C	8c	2a-	.
8Dn	8B-	.	.
[2E-	4c	.	.
.	4e-	4g	.
=59	=59	=59	=59
2E-]	4A-	4f	1b-
.	8A-	8f	.
.	8G	8e-	.
2D	4A-	4f	.
.	8B-	8g	.
.	8A-	8f	.
=60	=60	=60	=60
1E-	4G	4e-	2ee-
.	8B-	8g	.
.	8A-	8f	.
.	4B-	4g	4r
.	4c	8an	4ee-
.	.	8g	.
=61	=61	=61	=61
2B-	4d	4f	4dd
.	8d	8b-	2gg
.	8c	8a-	.
4r	4d	4b-	.
4A-	4f	4dd	4ff
=62	=62	=62	=62
4G	4b-	4ee-	4ee-
2c	4g	4cc	8ee-
.	.	.	8dd
.	[2e-	2g	4ee-
4B-	.	.	4gg
=63	=63	=63	=63
4A-	4e-]	4a-	4cc
8A-	8c	2a-	2ff
8G	8B-	.	.
4A-	4c	.	.
4c	4e-	4g	4ee-
=64	=64	=64	=64
4F	4f	4a-	4dd
2B-	4d	4f	8dd
.	.	.	8cc
.	4g	[2b-	4dd
4A-	4d	.	4ff
=65	=65	=65	=65
4G	4e-	4b-]	4b-
8G	4r	4r	4ee-
8F	.	.	.
4G	4r	4r	[2dd-
4B-	4f	4a-	.
=66	=66	=66	=66
4E-	2e-	2g	4dd-]
8E-	.	.	4cc
8Dn	.	.	.
4E-	4r	4r	[2b-
4G	4dn	4f	.
=67	=67	=67	=67
4C	2.c	2.e-	4b-]
8D	.	.	8a-
8E-	.	.	8g
2F	.	.	[2a-
.	4A-	8d	.
.	.	8c	.
=68	=68	=68	=68
2BB-	2F	4d	2a-]
.	.	4B-	.
2AAn	4r	[2e-	2g-
.	4c	.	.
=69	=69	=69	=69
1BB-	4F	2e-]	1f
.	8F	.	.
.	8E-	.	.
.	4F	2d	.
.	4B-	.	.
=70	=70	=70	=70
1EE-;	1G;	1B-;	1e-;
==	==	==	==
*-	*-	*-	*-
!!!CDT: 1685/3/-1750/7/28
!!!OCY: Deutschland
!!!PPP: Leipzig
!!!ODT: 1738//-1742//
!!!PDT: 1739//-1742//
!!!AFR: fuga; fugue
!!!AST: polyphony
!!!AMT: simple duple
!!!SCA: Bach-Werke-Verzeichnis
!!!YOR: Bach Gesellschaft
!!!SMS: British Library, various
!!!AIN: cemba; clavi
!!!EEV: 1.0
!!!RDT: 1986 December 1
!!!YER: 1994 August 10
!!!EFL: 31/48
!!!VTS: 3856900948
